X:1
T:The Puddy in the Well
M:6/8
L:1/8
K:G
 D| G2 G G2 G| E2 D D3| ddd A3| ddd B2 D| G2 G G2 G| E2 D D3| ddd e2 c|\
 d4- dd| g2 g g2 g| e2 d d3| B2 B B2 G| A2 F D3| G2 G B2 B| A2 F D3|\
 GGG A2 F| G4- G||
